X:1
T:Title
%%score ( 1 2 ) ( 3 4 )
L:1/8
Q:1/4=60
M:6/8
K:Bb
V:1 treble nm="Nylon Gtr., Soprano"
V:2 treble 
V:3 bass nm="Nylon Gtr., Bass"
V:4 bass 
V:1
 [DF]>[DF][DF] [EG]2 [DF] | [DB]3 [DF]3 | [DF]>[DF][DF] [CE]2 [CE] | [B,D]6 | %4
w: Daniel~O.~Teasley * * * *||||
 [DF]>[DF][DF] [EG]2 [DF] | [DF]3 [CE]3 | [CA]>[CG][CF] [FA]2 [CG] | F3- [EF]3[Q:1/4=12] | %8
w: ||||
[Q:1/4=60] [DF].[DF]>[DF] [DF]2 [CE] | [B,D]2 [DF] [DB]3 | [EG]>[EG][EG] [GB]2 [EG] | [DF]6 | %12
w: ||||
 [FA]>[FA][FA] AG[FA] | [FB]3 [DF]3 | z3 .F3 | [DB]6 |] %16
w: ||||
V:2
 x6 | x6 | x6 | x6 | x6 | x6 | x6 | C3 z3 | x6 | x6 | x6 | x6 | z3 .F3 | x6 | %14
 [DF]>[DF][DF] CD[Ec] | x6 |] %16
V:3
 [B,,B,]>[B,,B,][B,,B,] [B,,B,]2 [B,,B,] | [B,,F,]3 [B,,B,]3 | %2
w: 1.~Soft ly~ the~ eve ning~|ves pers~|
 [B,,B,]>[B,,B,][B,,B,] [F,,A,]2 [F,,A,] | [B,,F,]6 | [B,,B,]>[B,,B,][B,,B,] [B,,B,]2 [B,,B,] | %5
w: Hal low~ the~ clos ing~|day;~|Sweet ly~ the~ Sav ior~|
 [B,,B,]3 [C,A,]3 | [C,C]>[C,B,][C,A,] [C,C]2 [C,B,] | F,3- [F,C]3 | %8
w: whis pers,~|"Come~ to~ the~ throne~ and~|pray."~ *|
 [B,,B,].[B,,B,]>[B,,B,] [B,,B,]2 [B,,F,] | .F,3 z3 | [E,B,]>[E,B,][E,B,] [E,B,]2 [E,B,] | %11
w: |||
 [B,,B,]6 | [F,C]>[F,C][F,C] CB,[F,C] | [B,,D]3 [B,,B,]3 | [F,B,]>[F,B,][F,B,] A,B,F, | [B,,F,]6 |] %16
w: |||||
V:4
 x6 | x6 | x6 | x6 | x6 | x6 | x6 | A,3 z3 | x6 | B,,2- [B,,B,] [B,,B,]3 | x6 | x6 | z3 .F,3 | x6 | %14
 z3 .F,3 | x6 |] %16

